(/Applications/pcbgcode.repo/pcb-gcode.ulp)
(Copyright 2005 - 2012 by John Johnson)
(See readme.txt for licensing terms.)
(This file generated from the board:)
(.../eurorack/808_cowbell/808_cowbell.brd)
(Current profile is .../pcbgcode.repo/profiles/mach.pp  )
(This file generated 2/8/15 8:35 PM)
(Settings from pcb-machine.h)
(spindle on time = 0.0000)
(spindle speed = 20000.0000)
(tool change at 0.0000  0.0000  3.0000  )
(feed rate xy = F0     )
(feed rate z  = F20    )
(Z Axis Settings)
(  High     Up        Down     Drill)
(1.0000  	0.0500  	-0.0040 	-0.0730 )
(Settings from pcb-defaults.h)
(isolate min = 0.0010)
(isolate max = 0.0050)
(isolate step = 0.0010)
(Generated bottom outlines, bottom drill, )
(Unit of measure: inch)
( Tool|       Size       |  Min Sub |  Max Sub |   Count )
( T01 | 0.800mm 0.0315in | 0.0000in | 0.0000in |       0 )
( T02 | 0.813mm 0.0320in | 0.0000in | 0.0000in |       0 )
( T03 | 1.016mm 0.0400in | 0.0000in | 0.0000in |       0 )
( T04 | 1.118mm 0.0440in | 0.0000in | 0.0000in |       0 )
( T05 | 1.200mm 0.0472in | 0.0000in | 0.0000in |       0 )
(Inch Mode)
G20
(Absolute Coordinates)
G90
S20000
G00 Z1.0000  
G00 X0.0000  Y0.0000  
M03
G04 P0.000000
M05
G00 Z3.0000  
M06 T01  ; 0.0315  
G01 Z0.0000  F20    
M06 
G00 Z0.0500  
M03
G04 P0.000000
G82 X-0.3100 Y1.4600  Z-0.0730 F20    R0.0500  P0.010000
G82 X-0.3100 Y1.6600  
G82 X-0.4713 Y1.6000  
G82 X-0.6287 Y1.6000  
G82 X-0.5713 Y0.8500  
G82 X-0.7287 Y0.8500  
G82 X-1.7300 Y0.9100  
G82 X-1.7300 Y0.7500  
G82 X-2.3811 Y1.1000  
G82 X-2.5189 Y1.1000  
G82 X-2.7000 Y1.1689  
G82 X-2.7000 Y1.0311  
G82 X-2.9400 Y1.4000  
G82 X-2.9811 Y1.8500  
G82 X-3.1189 Y1.8500  
G82 X-3.5300 Y1.3600  
G82 X-2.7787 Y0.4500  
G82 X-2.6213 Y0.4500  
G82 X-2.1689 Y2.0000  
G82 X-2.0311 Y2.0000  
G82 X-2.0311 Y2.1500  
G82 X-2.1689 Y2.1500  
G82 X-1.4000 Y2.3100  
G82 X-1.2300 Y2.3100  
M05
G00 Z3.0000  
G00 X0.0000  Y0.0000  
M06 T02  ; 0.0320  
G01 Z0.0000  F20    
M06 
G00 Z0.0500  
M03
G04 P0.000000
G82 X-0.1600 Y1.0900  Z-0.0730 F20    R0.0500  P0.010000
G82 X-0.3200 Y1.0500  
G82 X-0.4200 Y1.0500  
G82 X-0.5200 Y1.0500  
G82 X-0.6200 Y1.0500  
G82 X-0.7200 Y1.0500  
G82 X-0.8200 Y1.0500  
G82 X-0.9200 Y1.0500  
G82 X-1.2000 Y1.1500  
G82 X-1.3000 Y1.1500  
G82 X-1.4000 Y1.1500  
G82 X-1.4500 Y1.2800  
G82 X-1.6500 Y1.2800  
G82 X-1.7000 Y1.2000  
G82 X-1.8200 Y1.1000  
G82 X-1.9500 Y1.1500  
G82 X-2.1000 Y1.1000  
G82 X-2.2000 Y1.1000  
G82 X-2.3500 Y1.2500  
G82 X-2.4500 Y1.2500  
G82 X-2.5500 Y1.2500  
G82 X-2.6500 Y1.2500  
G82 X-2.8500 Y1.4000  
G82 X-2.8500 Y1.5000  
G82 X-2.6500 Y1.5500  
G82 X-2.5500 Y1.5500  
G82 X-2.4500 Y1.5500  
G82 X-2.3500 Y1.5500  
G82 X-2.5000 Y1.6500  
G82 X-2.4000 Y1.7500  
G82 X-2.2000 Y1.7500  
G82 X-2.1500 Y1.4500  
G82 X-2.1500 Y1.3500  
G82 X-1.9500 Y1.3500  
G82 X-1.8200 Y1.4000  
G82 X-1.6400 Y1.4500  
G82 X-1.6000 Y1.6300  
G82 X-1.7500 Y1.6500  
G82 X-1.7500 Y1.9500  
G82 X-1.5500 Y1.9000  
G82 X-1.4500 Y1.9000  
G82 X-1.3500 Y1.9000  
G82 X-1.2500 Y1.9000  
G82 X-1.3500 Y2.0500  
G82 X-1.4100 Y2.2100  
G82 X-1.2100 Y2.2100  
G82 X-1.0500 Y2.0500  
G82 X-1.0500 Y1.9000  
G82 X-1.0000 Y1.7500  
G82 X-1.0000 Y1.6500  
G82 X-1.1500 Y1.4500  
G82 X-1.3400 Y1.4500  
G82 X-1.4000 Y1.6300  
G82 X-1.2500 Y1.7000  
G82 X-0.8500 Y1.9000  
G82 X-0.8200 Y1.3500  
G82 X-0.7200 Y1.3500  
G82 X-0.6200 Y1.3500  
G82 X-0.5200 Y1.3500  
G82 X-0.4200 Y1.3500  
G82 X-0.3200 Y1.3500  
G82 X-0.1600 Y1.2900  
G82 X-0.3000 Y0.7000  
G82 X-0.4500 Y0.6500  
G82 X-0.5500 Y0.5000  
G82 X-0.6500 Y0.6500  
G82 X-0.7500 Y0.5000  
G82 X-0.9500 Y0.7500  
G82 X-1.1500 Y0.7500  
G82 X-1.1900 Y0.6500  
G82 X-1.3500 Y0.6500  
G82 X-1.5000 Y0.6500  
G82 X-1.6800 Y0.5700  
G82 X-1.7800 Y0.5700  
G82 X-1.5000 Y0.4500  
G82 X-1.3500 Y0.4500  
G82 X-1.1900 Y0.4500  
G82 X-1.4000 Y0.8300  
G82 X-1.4000 Y0.9300  
G82 X-1.7000 Y1.0000  
G82 X-1.9000 Y0.9000  
G82 X-2.1000 Y0.9000  
G82 X-2.2000 Y0.7500  
G82 X-2.3000 Y0.7500  
G82 X-2.4000 Y0.7500  
G82 X-2.4200 Y0.6000  
G82 X-2.5500 Y0.6500  
G82 X-2.6100 Y0.7900  
G82 X-2.7100 Y0.7900  
G82 X-2.8100 Y0.7900  
G82 X-2.7500 Y0.6500  
G82 X-2.9500 Y1.0500  
G82 X-3.0500 Y1.0500  
G82 X-3.2300 Y1.0000  
G82 X-3.2300 Y0.8000  
G82 X-3.1500 Y1.3000  
G82 X-3.1500 Y1.4500  
G82 X-3.3000 Y1.4500  
G82 X-3.3000 Y1.6500  
G82 X-3.1500 Y1.6500  
G82 X-3.0000 Y2.0000  
G82 X-2.9500 Y2.1500  
G82 X-2.7500 Y2.1500  
G82 X-2.6000 Y2.0000  
G82 X-2.6000 Y1.8000  
G82 X-2.7000 Y1.6500  
G82 X-2.9500 Y1.3000  
G82 X-3.3000 Y2.0000  
G82 X-2.2200 Y0.6000  
G82 X-1.1500 Y1.2500  
G82 X-0.9200 Y1.3500  
G82 X-0.3000 Y0.5000  
M05
G00 Z3.0000  
G00 X0.0000  Y0.0000  
M06 T03  ; 0.0400  
G01 Z0.0000  F20    
M06 
G00 Z0.0500  
M03
G04 P0.000000
G82 X-0.3000 Y2.3000  Z-0.0730 F20    R0.0500  P0.010000
G82 X-0.4000 Y2.3000  
G82 X-0.5000 Y2.3000  
G82 X-0.6000 Y2.3000  
G82 X-0.7000 Y2.3000  
G82 X-0.7000 Y2.4000  
G82 X-0.6000 Y2.4000  
G82 X-0.5000 Y2.4000  
G82 X-0.4000 Y2.4000  
G82 X-0.3000 Y2.4000  
G82 X-0.8000 Y2.4000  
G82 X-0.9000 Y2.4000  
G82 X-1.0000 Y2.4000  
G82 X-1.0000 Y2.3000  
G82 X-0.9000 Y2.3000  
G82 X-0.8000 Y2.3000  
M05
G00 Z3.0000  
G00 X0.0000  Y0.0000  
M06 T04  ; 0.0440  
G01 Z0.0000  F20    
M06 
G00 Z0.0500  
M03
G04 P0.000000
G82 X-2.8000 Y1.6500  Z-0.0730 F20    R0.0500  P0.010000
G82 X-3.3000 Y2.1000  
G82 X-2.9000 Y0.6500  
M05
G00 Z3.0000  
G00 X0.0000  Y0.0000  
M06 T05  ; 0.0472  
G01 Z0.0000  F20    
M06 
G00 Z0.0500  
M03
G04 P0.000000
G82 X-0.2531 Y0.1500  Z-0.0730 F20    R0.0500  P0.010000
G82 X-0.4500 Y0.1500  
G82 X-0.6469 Y0.1500  
G82 X-1.2531 Y0.1500  
G82 X-1.4500 Y0.1500  
G82 X-1.6469 Y0.1500  
G82 X-2.2531 Y0.1500  
G82 X-2.4500 Y0.1500  
G82 X-2.6469 Y0.1500  
T01 
G00 Z1.0000  
M05
M02
